X: 27
M:6/8
L:1/8
K:G
|: de=f fed|G2 =f e2 c|efg ge^c|A2 g f2 d|b2 g dBd|a2 f dBd|gec Aaf|g3 G3:|

